images/icons/search.svg

<svg width="19" height="19" viewBox="0 0 19 19" fill="none" xmlns="http://www.w3.org/2000/svg">
<path d="M18.1585 17.05L14.448 13.35C15.4508 12.05 16.1528 10.35 16.1528 8.44995C16.1528 4.04995 12.5426 0.449951 8.13013 0.449951C3.71764 0.449951 0.107422 4.14995 0.107422 8.54995C0.107422 12.95 3.71764 16.55 8.13013 16.55C9.93524 16.55 11.6401 15.95 13.044 14.85L16.7545 18.55L18.1585 17.05ZM8.13013 14.55C4.82076 14.55 2.1131 11.85 2.1131 8.54995C2.1131 5.24995 4.82076 2.54995 8.13013 2.54995C11.4395 2.54995 14.1472 5.24995 14.1472 8.54995C14.1472 11.85 11.4395 14.55 8.13013 14.55Z" fill="black"/>
</svg>

<svg width="19" height="19" fill="none" xmlns="http://www.w3.org/2000/svg"><path d="m18.159 17.05-3.711-3.7c1.003-1.3 1.705-3 1.705-4.9 0-4.4-3.61-8-8.023-8C3.718.45.107 4.15.107 8.55c0 4.4 3.61 8 8.023 8 1.805 0 3.51-.6 4.914-1.7l3.71 3.7 1.404-1.5ZM8.13 14.55c-3.31 0-6.017-2.7-6.017-6s2.708-6 6.017-6c3.31 0 6.017 2.7 6.017 6s-2.707 6-6.017 6Z" fill="#000"/></svg>
